X:5654
T:Rosemary Brown
O:england
M:3/4
L:1/8
C:Pat Shuldan Shaw
S:Aly Bain - Lonely Bird
R:Waltz
D:Aly Bain - Lonely Bird
K:A
AB|c4 Bc|e4 E2|F4F  A/2F/2|E4 AB|
c3 B2c|e3d2c|B b3 a2|g2f3e|
c4Bc|e4E2|F3GA2|G4G A/2B/2|
A c2 e2 g|f2 b3 a|g2f3g|a4:||
ag|f4 ec|e2 c3 e|f3 g (3agf|e2 c3 B|
A4 GF|B3 A2 B|c f3 a2|g3 e c2|
f4 gf|a3 g2 f|(3efe c2 Ac|B4 AB|
c3 deg|f b2 a3|g2 f3 g|a4:||


